source/images/icons/icon-editorial/excavatrice.svg

<?xml version="1.0" encoding="UTF-8"?>
<svg width="80px" height="80px" viewBox="0 0 80 80" version="1.1" xmlns="http://www.w3.org/2000/svg" xmlns:xlink="http://www.w3.org/1999/xlink">
    <!-- Generator: Sketch 55.2 (78181) - https://sketchapp.com -->
    <title>Illustrative Icons/Excavatrice</title>
    <desc>Created with Sketch.</desc>
    <g id="Illustrative-Icons/Excavatrice" stroke="none" stroke-width="1" fill="none" fill-rule="evenodd">
        <path d="M69.081667,52.4738213 C67.1683337,54.440488 64.736667,55.4338213 61.856667,55.4338213 C55.1100003,55.4338213 52.3850003,49.995488 50.3950003,46.0238213 C49.9807868,45.200917 50.3120961,44.1980349 51.1350003,43.7838213 C51.9579046,43.3696077 52.9607868,43.700917 53.3750003,44.5238213 C55.9450003,49.6538213 57.8750003,52.0938213 61.856667,52.0938213 C63.8300004,52.0938213 65.4133337,51.4571547 66.6900004,50.1471547 C68.5433337,48.2571546 69.4033337,45.3038213 69.7983337,43.160488 C69.9666285,42.2296929 70.0851303,41.2905797 70.1533337,40.3471546 L55.241667,40.3721546 C54.3211924,40.3721546 53.5750003,39.6259626 53.5750003,38.705488 C53.5750003,37.7850134 54.3211924,37.0388213 55.241667,37.0388213 L59.441667,37.0388213 L50.731667,25.505488 C50.3769391,25.0181935 50.3129468,24.3773448 50.5643132,23.8295284 C50.8156796,23.2817121 51.3432337,22.9122954 51.9439826,22.8634229 C52.5447316,22.8145505 53.1250595,23.0938381 53.461667,23.5938213 L63.506667,37.0321546 L65.5483337,37.0321546 L51.571667,11.4338213 L36.7383337,25.160488 C36.3122944,25.5772978 35.6962526,25.7351568 35.122265,25.5746009 C34.5482775,25.4140451 34.1035467,24.9594666 33.9555984,24.3821009 C33.80765,23.8047352 33.9789611,23.1922978 34.4050003,22.7754879 L50.8500003,7.47382126 C51.2286226,7.10436661 51.7601559,6.93659836 52.2822671,7.02175378 C52.8043783,7.1069092 53.2550583,7.43487469 53.496667,7.90548793 L69.1450004,36.725488 C69.1912007,36.8174952 69.2291279,36.9134286 69.2583337,37.0121546 L71.8800004,37.0121546 C72.7863438,37.0119353 73.5267275,37.7360305 73.546667,38.6421546 C73.5550004,39.0038213 73.696667,47.745488 69.081667,52.4738213 Z M50.2400005,66.9738213 C50.240923,70.6393113 47.2721542,73.6125557 43.606667,73.6171547 L13.6433336,73.6171547 C11.2698991,73.6171547 9.07675521,72.3509426 7.89003795,70.2954881 C6.70332068,68.2400336 6.70332068,65.7076091 7.89003795,63.6521546 C9.07675521,61.5967001 11.2698991,60.330488 13.6433336,60.330488 L43.606667,60.330488 C47.2717728,60.336005 50.2400005,63.3087113 50.2400005,66.9738213 L50.2400005,66.9738213 Z M46.906667,66.9738213 C46.9094338,65.1477059 45.4327762,63.6643362 43.606667,63.6588213 L13.6433336,63.6588213 C11.8152711,63.6588213 10.3333336,65.1407588 10.3333336,66.9688213 C10.3333336,68.7968839 11.8152711,70.2788213 13.6433336,70.2788213 L43.606667,70.2788213 C45.4295245,70.2742341 46.9055859,68.7966825 46.9083337,66.9738213 L46.906667,66.9738213 Z M10.2300003,56.9971547 C10.2300003,57.9176292 10.9761924,58.6638213 11.896667,58.6638213 C12.8171415,58.6638213 13.5633336,57.9176292 13.5633336,56.9971547 L13.5633336,52.4021547 C13.5628718,52.3386573 13.5589773,52.2752314 13.551667,52.2121547 L13.551667,49.535488 L30.2183336,49.510488 C31.1388082,49.510488 31.8850003,48.7642959 31.8850003,47.8438213 L31.846667,29.5938213 C34.846667,30.080488 37.566667,31.8788213 39.6533337,34.7771546 C42.1683337,38.2771546 43.5533337,42.9788213 43.5533337,48.040488 L43.5533337,52.3738213 C43.5533337,52.385488 43.5533337,52.395488 43.5533337,52.4071547 L43.5533337,57.0021547 C43.5533337,57.9226292 44.2995257,58.6688213 45.2200003,58.6688213 C46.1404749,58.6688213 46.886667,57.9226292 46.886667,57.0021547 L46.886667,55.6321547 C46.886667,55.620488 46.886667,55.610488 46.886667,55.5988213 L46.886667,48.0371546 C46.886667,42.2821546 45.2783337,36.880488 42.3583337,32.825488 C39.2450003,28.5021546 34.9183336,26.1221546 30.176667,26.1221546 C29.2561924,26.1221546 28.5100003,26.8683467 28.5100003,27.7888213 L28.551667,46.1771546 L18.5600003,46.1938213 L18.5600003,32.8988213 L21.9683336,32.8988213 C22.8888082,32.8988213 23.6350003,32.1526292 23.6350003,31.2321546 C23.6350003,30.31168 22.8888082,29.565488 21.9683336,29.565488 L16.8933336,29.565488 C15.972859,29.565488 15.226667,30.31168 15.226667,31.2321546 L15.226667,46.1988213 L11.8933336,46.1988213 C10.972859,46.1988213 10.2266428,46.9450134 10.2266428,47.865488 L10.2266428,55.060488 C10.2266428,55.1240111 10.2301943,55.1874874 10.2383336,55.250488 L10.2300003,56.9971547 Z M40.2300003,65.2888213 C38.9350003,65.2888213 37.9850003,66.760488 38.9733337,68.1221547 C38.9968619,68.1553932 39.0255582,68.1846521 39.0583337,68.2088213 C40.4150003,69.195488 41.891667,68.245488 41.891667,66.950488 L41.891667,66.950488 C41.8889326,66.0352092 41.1486051,65.2933937 40.2333337,65.2888213 L40.2300003,65.2888213 Z M16.866667,65.2888213 C15.571667,65.2888213 14.621667,66.760488 15.6083336,68.1221547 C15.6320052,68.155828 15.6613269,68.1851498 15.6950003,68.2088213 C17.051667,69.195488 18.5283336,68.245488 18.5283336,66.950488 L18.5283336,66.950488 C18.5255992,66.0352092 17.7852718,65.2933937 16.8700003,65.2888213 L16.866667,65.2888213 Z M50.2733337,36.9971546 C49.3528591,36.9971546 48.606667,37.7433467 48.606667,38.6638213 C48.606667,39.5842959 49.3528591,40.330488 50.2733337,40.330488 C51.1938083,40.330488 51.9400003,39.5842959 51.9400003,38.6638213 C51.9400003,37.7433467 51.1938083,36.9971546 50.2733337,36.9971546 Z" id="Shape-color" fill="#ADB5BD"></path>
    </g>
</svg>

<svg width="80" height="80">
    <title>
        Illustrative Icons/Excavatrice
    </title>
    <path d="M69.082 52.474c-1.914 1.966-4.345 2.96-7.225 2.96-6.747 0-9.472-5.439-11.462-9.41a1.668 1.668 0 0 1 2.98-1.5c2.57 5.13 4.5 7.57 8.482 7.57 1.973 0 3.556-.637 4.833-1.947 1.853-1.89 2.713-4.843 3.108-6.987.169-.93.287-1.87.355-2.813l-14.911.025a1.667 1.667 0 1 1 0-3.333h4.2l-8.71-11.534a1.667 1.667 0 1 1 2.73-1.911l10.045 13.438h2.041L51.572 11.434 36.738 25.16a1.668 1.668 0 0 1-2.333-2.385L50.85 7.474a1.667 1.667 0 0 1 2.647.431l15.648 28.82c.046.092.084.188.113.287h2.622c.906 0 1.647.724 1.667 1.63.008.362.15 9.103-4.465 13.832zm-18.842 14.5a6.642 6.642 0 0 1-6.633 6.643H13.643a6.643 6.643 0 1 1 0-13.287h29.964a6.643 6.643 0 0 1 6.633 6.644zm-3.333 0a3.31 3.31 0 0 0-3.3-3.315H13.643a3.31 3.31 0 0 0 0 6.62h29.964a3.31 3.31 0 0 0 3.301-3.305h-.001zM10.23 56.997a1.667 1.667 0 0 0 3.333 0v-4.595c0-.063-.004-.127-.011-.19v-2.677l16.666-.025c.92 0 1.667-.746 1.667-1.666l-.038-18.25c3 .486 5.72 2.285 7.806 5.183 2.515 3.5 3.9 8.202 3.9 13.263v8.962a1.667 1.667 0 1 0 3.334 0v-1.37V48.037c0-5.755-1.609-11.157-4.529-15.212-3.113-4.323-7.44-6.703-12.181-6.703-.92 0-1.667.746-1.667 1.667l.042 18.388-9.992.017V32.899h3.408a1.667 1.667 0 0 0 0-3.334h-5.075c-.92 0-1.666.747-1.666 1.667V46.2h-3.334c-.92 0-1.666.746-1.666 1.666v7.195c0 .064.003.127.011.19l-.008 1.747zm30 8.292c-1.295 0-2.245 1.471-1.257 2.833a.382.382 0 0 0 .085.087c1.357.986 2.834.036 2.834-1.259a1.667 1.667 0 0 0-1.659-1.661h-.003zm-23.363 0c-1.295 0-2.245 1.471-1.259 2.833a.357.357 0 0 0 .087.087c1.357.986 2.833.036 2.833-1.259a1.667 1.667 0 0 0-1.658-1.661h-.003zm33.406-28.292a1.667 1.667 0 1 0 0 3.333 1.667 1.667 0 0 0 0-3.333z" fill="#ADB5BD" fill-rule="evenodd"/>
</svg>
